packages/katcn/src/icons/svg/umbrella-solid.svg

<svg width="24" height="25" viewBox="0 0 24 25" fill="none" xmlns="http://www.w3.org/2000/svg">
<path d="M22.5 10.468C21.4 5.46802 17 1.96802 11.8 1.96802C6.59996 1.96802 2.19996 5.46802 1.09996 10.468C0.899956 11.268 1.09996 12.168 1.59996 12.868C2.19996 13.568 2.99996 13.968 3.79996 13.968H10.8V20.668C10.8 21.368 10.2 21.968 9.49996 21.968C8.79996 21.968 8.19996 21.368 8.19996 20.668V20.168C8.19996 19.568 7.79996 19.168 7.19996 19.168C6.59996 19.168 6.19996 19.568 6.19996 20.168V20.668C6.19996 22.468 7.69996 23.968 9.49996 23.968C11.3 23.968 12.8 22.468 12.8 20.668V13.968H19.8C20.7 13.968 21.5 13.568 22 12.868C22.5 12.268 22.7 11.368 22.5 10.468Z" fill="black"/>
</svg>

<svg xmlns="http://www.w3.org/2000/svg" fill="none" viewBox="0 0 24 25"><path fill="#000" d="M22.5 10.468c-1.1-5-5.5-8.5-10.7-8.5s-9.6 3.5-10.7 8.5c-.2.8 0 1.7.5 2.4.6.7 1.4 1.1 2.2 1.1h7v6.7c0 .7-.6 1.3-1.3 1.3s-1.3-.6-1.3-1.3v-.5c0-.6-.4-1-1-1s-1 .4-1 1v.5c0 1.8 1.5 3.3 3.3 3.3s3.3-1.5 3.3-3.3v-6.7h7c.9 0 1.7-.4 2.2-1.1.5-.6.7-1.5.5-2.4"/></svg>
